localPackages/DesignSystem/Sources/DesignSystem/Resources/Assets.xcassets/IconSet/ic-alias.imageset/ic-alias.svg

<svg width="24" height="24" viewBox="0 0 24 24" fill="none" xmlns="http://www.w3.org/2000/svg">
<g id="ic-alias">
<g id="Icon">
<path fill-rule="evenodd" clip-rule="evenodd" d="M14.5173 3.24689C16.218 2.51314 18.1708 3.48072 18.6172 5.2784L20.1015 11.2549H21.75C22.1642 11.2549 22.5 11.5906 22.5 12.0049C22.5 12.4191 22.1642 12.7549 21.75 12.7549H2.25C1.83579 12.7549 1.5 12.4191 1.5 12.0049C1.5 11.5906 1.83579 11.2549 2.25 11.2549H3.89855L5.38276 5.2784C5.82921 3.48073 7.78198 2.51314 9.48273 3.24689L11.1087 3.94838C11.6776 4.1938 12.3224 4.1938 12.8913 3.94838L14.5173 3.24689ZM17.1615 5.63993C16.9382 4.7411 15.9619 4.2573 15.1115 4.62418L13.4855 5.32567C12.5374 5.73471 11.4626 5.73471 10.5145 5.32567L8.88853 4.62418C8.03815 4.2573 7.06176 4.7411 6.83854 5.63994L5.45904 11.1947H18.541L17.1615 5.63993Z" fill="#0F0F0F"/>
<path fill-rule="evenodd" clip-rule="evenodd" d="M9.85741 15.155C9.18324 14.1593 8.04304 13.5049 6.75 13.5049C4.67893 13.5049 3 15.1838 3 17.2549C3 19.3259 4.67893 21.0049 6.75 21.0049C8.82107 21.0049 10.5 19.3259 10.5 17.2549C10.5 16.4264 11.1716 15.7549 12 15.7549C12.8284 15.7549 13.5 16.4264 13.5 17.2549C13.5 19.3259 15.1789 21.0049 17.25 21.0049C19.3211 21.0049 21 19.3259 21 17.2549C21 15.1838 19.3211 13.5049 17.25 13.5049C15.957 13.5049 14.8168 14.1593 14.1426 15.155C13.5981 14.5995 12.8393 14.2549 12 14.2549C11.1607 14.2549 10.4019 14.5995 9.85741 15.155ZM9 17.2549C9 18.4975 7.99264 19.5049 6.75 19.5049C5.50736 19.5049 4.5 18.4975 4.5 17.2549C4.5 16.0122 5.50736 15.0049 6.75 15.0049C7.99264 15.0049 9 16.0122 9 17.2549ZM15 17.2549C15 18.4975 16.0074 19.5049 17.25 19.5049C18.4926 19.5049 19.5 18.4975 19.5 17.2549C19.5 16.0122 18.4926 15.0049 17.25 15.0049C16.0074 15.0049 15 16.0122 15 17.2549Z" fill="#0F0F0F"/>
</g>
</g>
</svg>

<svg xmlns="http://www.w3.org/2000/svg" width="24" height="24" viewBox="0 0 24 24">
  <g class="ic-alias">
    <g class="Icon">
      <path fill-rule="evenodd" d="M14.517 3.247a3 3 0 0 1 4.1 2.031l1.485 5.977h1.648a.75.75 0 1 1 0 1.5H2.25a.75.75 0 0 1 0-1.5h1.649l1.484-5.977a3 3 0 0 1 4.1-2.031l1.626.701a2.25 2.25 0 0 0 1.782 0l1.626-.701Zm2.645 2.393a1.5 1.5 0 0 0-2.05-1.016l-1.627.702a3.75 3.75 0 0 1-2.97 0l-1.626-.702a1.5 1.5 0 0 0-2.05 1.016l-1.38 5.555h13.082l-1.38-5.555Z"/>
      <path fill-rule="evenodd" d="M9.857 15.155a3.75 3.75 0 1 0 .643 2.1 1.5 1.5 0 1 1 3 0 3.75 3.75 0 1 0 .643-2.1 2.991 2.991 0 0 0-2.143-.9 2.99 2.99 0 0 0-2.143.9ZM9 17.255a2.25 2.25 0 1 1-4.5 0 2.25 2.25 0 0 1 4.5 0Zm6 0a2.25 2.25 0 1 0 4.5 0 2.25 2.25 0 0 0-4.5 0Z"/>
    </g>
  </g>
</svg>
